X:1
T: Over the Water to Jersey
R: jig
C: Rick Gagne
N: 1988 on tenor banjo
Q: 1/4=165
M: 6/8
K: D
D | "D"DEF "G"G2G | "A"ABc "D"d2d | "A"efg "D"fed | "A"cee fee |
"D"DEF "G"G2G | "A"ABc "D"d2d | "A"efg "D"fed | "A"Bec "D"d2 :|
e | "Bm"fed "A"cdA | "G"Bee "D"Add | "G"Bee "D"Add | "G"Bcd "A"efg |
"Bm"fed "A"cdA | "G"Bee "D"Add | "G"Bee "D"Add | "A"Bec "D"d2 :|
